Sources/FrostedUI/Resources/Icons.xcassets/gift20.imageset/gift-20.svg

<svg width="20" height="20" viewBox="0 0 20 20" fill="none" xmlns="http://www.w3.org/2000/svg" data-fui-icon="true">
  <path
    d="M7.20898 1C8.39087 1 9.44301 1.64515 10 2.62793C10.557 1.64515 11.6091 1 12.791 1H13.25C14.7688 1 16 2.23122 16 3.75C16 4.20759 15.8862 4.638 15.6885 5.01758H17.2402C18.2121 5.0177 18.9999 5.80551 19 6.77734V8.24902C18.9999 9.13248 18.3485 9.86149 17.5 9.9873V16.4404C17.4998 17.8539 16.3539 18.9998 14.9404 19H5.05957C3.64606 18.9998 2.50022 17.8539 2.5 16.4404V9.9873C1.65151 9.86149 1.00012 9.13248 1 8.24902V6.77734C1.00013 5.80551 1.78793 5.0177 2.75977 5.01758H4.31152C4.11381 4.638 4 4.20759 4 3.75C4 2.23122 5.23122 1 6.75 1H7.20898ZM4 16.4404C4.00022 17.0255 4.47448 17.4998 5.05957 17.5H9.25V10.0088H4V16.4404ZM10.75 17.5H14.9404C15.5255 17.4998 15.9998 17.0255 16 16.4404V10.0088H10.75V17.5ZM2.75977 6.51758C2.61636 6.5177 2.50013 6.63394 2.5 6.77734V8.24902C2.50013 8.39243 2.61636 8.50866 2.75977 8.50879H9.25V6.51758H2.75977ZM10.75 8.50879H17.2402C17.3836 8.50866 17.4999 8.39243 17.5 8.24902V6.77734C17.4999 6.63394 17.3836 6.5177 17.2402 6.51758H10.75V8.50879ZM6.75 2.5C6.05964 2.5 5.5 3.05964 5.5 3.75C5.5 4.44036 6.05964 5 6.75 5H9.0957L8.88867 3.89453C8.7371 3.08617 8.03144 2.5 7.20898 2.5H6.75ZM12.791 2.5C11.9686 2.5 11.2629 3.08617 11.1113 3.89453L10.9043 5H13.25C13.9404 5 14.5 4.44036 14.5 3.75C14.5 3.05964 13.9404 2.5 13.25 2.5H12.791Z"
    fill="currentColor"
  />
</svg>

<svg xmlns="http://www.w3.org/2000/svg" width="20" height="20" fill="none" data-fui-icon="true" viewBox="0 0 20 20"><path fill="currentColor" d="M7.209 1C8.391 1 9.443 1.645 10 2.628A3.21 3.21 0 0 1 12.791 1h.459a2.75 2.75 0 0 1 2.438 4.018h1.552c.972 0 1.76.788 1.76 1.76v1.471c0 .883-.651 1.612-1.5 1.738v6.453A2.56 2.56 0 0 1 14.94 19H5.06a2.56 2.56 0 0 1-2.56-2.56V9.987A1.76 1.76 0 0 1 1 8.25V6.777c0-.971.788-1.76 1.76-1.76h1.552A2.75 2.75 0 0 1 6.75 1zM4 16.44c0 .585.474 1.06 1.06 1.06h4.19v-7.491H4zm6.75 1.06h4.19A1.06 1.06 0 0 0 16 16.44V10.01h-5.25zM2.76 6.518a.26.26 0 0 0-.26.26v1.471c0 .143.116.26.26.26h6.49V6.518zm7.99 1.99h6.49a.26.26 0 0 0 .26-.259V6.777a.26.26 0 0 0-.26-.26h-6.49zm-4-6.008a1.25 1.25 0 1 0 0 2.5h2.346l-.207-1.105A1.71 1.71 0 0 0 7.209 2.5zm6.041 0a1.71 1.71 0 0 0-1.68 1.395L10.904 5h2.346a1.25 1.25 0 1 0 0-2.5z"/></svg>
